!!!COM: Corelli, Arcangelo
!!!OTL: 
!!!ONM: Opus 6, No. 9
!!!OMV: 6
!!!CDT: 1653/2/17/-1713/1/8/
!!!OCY: Italia
**kern	**kern	**kern	**kern	**kern	**kern	**kern
*clefC	*clefG	*clefG	*clefG	*clefC	*clefG	*clefG
*k[b-]	*k[b-]	*k[b-]	*k[b-]	*k[b-]	*k[b-]	*k[b-]
*F:	*F:	*F:	*F:	*F:	*F:	*F:
*M3/8	*M3/8	*M3/8	*M3/8	*M3/8	*M3/8	*M3/8
=1	=1	=1	=1	=1	=1	=1
4.r	4.r	4.r	4.r	8F	8a	8ff
.	.	.	.	4C	4g	16ee
.	.	.	.	.	.	16dd
.	.	.	.	.	.	16cc
.	.	.	.	.	.	16b-
=2	=2	=2	=2	=2	=2	=2
4.r	4.r	4.r	4.r	4D	4.f	8a
.	.	.	.	.	.	8f
.	.	.	.	8AA	.	8cc
=3	=3	=3	=3	=3	=3	=3
4.r	4.r	4.r	4.r	8BB-	8dd	8ff
.	.	.	.	8GG	4ee	8.gg
.	.	.	.	8C	.	.
.	.	.	.	.	.	32ff
.	.	.	.	.	.	32gg
=4	=4	=4	=4	=4	=4	=4
4.r	4.r	4.r	4.r	4.FF	4.ff	8aa
.	.	.	.	.	.	8cc
.	.	.	.	.	.	8f
=5	=5	=5	=5	=5	=5	=5
8F	4cc	4ff	4aa	8F	4ff	4aa
8A	.	.	.	8A	.	.
8F	8r	8r	8r	8F	8r	8r
=6	=6	=6	=6	=6	=6	=6
8c	4cc	4ee	4gg	8c	4ee	4gg
8E	.	.	.	8E	.	.
8C	8r	8r	8r	8C	8r	8r
=7	=7	=7	=7	=7	=7	=7
8F	8c	8a	16aa	8F	8a	16aa
.	.	.	16gg	.	.	16gg
8D	4d	4b	4ff	8D	4b	4ff
8G	.	.	.	8G	.	.
=8	=8	=8	=8	=8	=8	=8
4.C	4.e	4.cc	4.ee	4.C	4.cc	4.ee
=9	=9	=9	=9	=9	=9	=9
4.r	4.r	4.r	4.r	4c	4.r	8ccc
.	.	.	.	.	.	16bb-
.	.	.	.	.	.	16aa
.	.	.	.	8r	.	16gg
.	.	.	.	.	.	16ff
=10	=10	=10	=10	=10	=10	=10
4.r	4.r	4.r	4.r	4C	8ccc	8ee
.	.	.	.	.	16bb-	4ff
.	.	.	.	.	16aa	.
.	.	.	.	8r	16gg	.
.	.	.	.	.	16ff	.
=11	=11	=11	=11	=11	=11	=11
4.r	4.r	4.r	4.r	4c	8ee	8gg
.	.	.	.	.	4ff	4aa
.	.	.	.	8r	.	.
=12	=12	=12	=12	=12	=12	=12
4.r	4.r	4.r	4.r	8C	4.ee	8gg
.	.	.	.	8c	.	4cc
.	.	.	.	8B-	.	.
=13	=13	=13	=13	=13	=13	=13
8A	4cc	4ff	4ccc	8A	4ff	4ccc
8B-	.	.	.	8B-	.	.
8c	8r	8r	8r	8c	8r	8r
=14	=14	=14	=14	=14	=14	=14
4E	4cc	4gg	4bb-	4E	4gg	4bb-
8r	8r	8r	8r	8r	8r	8r
=15	=15	=15	=15	=15	=15	=15
8F	8cc	8ff	16aa	8F	8ff	16aa
.	.	.	16gg	.	.	16gg
4C	4cc	4ee	4ff	4C	4ee	4gg
=16	=16	=16	=16	=16	=16	=16
4.F	4.a	4.ff	4.ff	4.F	4.ff	4.ff
=17	=17	=17	=17	=17	=17	=17
8A	4cc	4ff	4ccc	8A	4ff	4ccc
8B-	.	.	.	8B-	.	.
8c	8r	8r	8r	8c	8r	8r
=18	=18	=18	=18	=18	=18	=18
4E	4cc	4gg	4bb-	4E	4gg	4bb-
8r	8r	8r	8r	8r	8r	8r
=19	=19	=19	=19	=19	=19	=19
8F	8c	8ff	16aa	8F	8ff	16aa
.	.	.	16gg	.	.	16gg
4C	4c	4ee	4gg	4C	4ee	4gg
=20	=20	=20	=20	=20	=20	=20
4.FF	4.A	4.ff	4.ff	4.FF	4.ff	4.ff
=21	=21	=21	=21	=21	=21	=21
4.r	4.r	4.r	4.r	8c#	4.r	16ee
.	.	.	.	.	.	16a
.	.	.	.	8A	.	16cc#
.	.	.	.	.	.	16ee
.	.	.	.	8c#	.	16aa
.	.	.	.	.	.	16ee
=22	=22	=22	=22	=22	=22	=22
4.r	4.r	4.r	4.r	8d	16ff	4ff
.	.	.	.	.	16dd	.
.	.	.	.	8D	16ff	.
.	.	.	.	.	16aa	.
.	.	.	.	8d	16ff	8r
.	.	.	.	.	16dd	.
=23	=23	=23	=23	=23	=23	=23
8c#	8a	4ee	16ee	8c#	4aa	16ee
.	.	.	16a	.	.	16a
8A	8a	.	16cc#	8A	.	16cc#
.	.	.	16ee	.	.	16ee
8c#	8a	8ee	16aa	8c#	8r	16aa
.	.	.	16ee	.	.	16ee
=24	=24	=24	=24	=24	=24	=24
4d	4a	4a	4ff	4d	16ff	4ff
.	.	.	.	.	16dd	.
.	.	.	.	.	16ff	.
.	.	.	.	.	16aa	.
8r	8r	8r	8r	8r	16ff	8r
.	.	.	.	.	16dd	.
=25	=25	=25	=25	=25	=25	=25
4.r	4.r	4.r	4.r	8F#	4aa	16aa
.	.	.	.	.	.	16dd
.	.	.	.	8D	.	16ff#
.	.	.	.	.	.	16aa
.	.	.	.	8F#	8r	16ddd
.	.	.	.	.	.	16aa
=26	=26	=26	=26	=26	=26	=26
4.r	4.r	4.r	4.r	8G	16bb-	4bb-
.	.	.	.	.	16gg	.
.	.	.	.	8GG	16bb-	.
.	.	.	.	.	16ddd	.
.	.	.	.	8G	16bb-	8r
.	.	.	.	.	16gg	.
=27	=27	=27	=27	=27	=27	=27
8F#	8d	4aa	16aa	8F#	4ddd	16aa
.	.	.	16dd	.	.	16dd
8D	8d	.	16ff#	8D	.	16ff#
.	.	.	16aa	.	.	16aa
8F#	8d	8aa	16ddd	8F#	8r	16ddd
.	.	.	16aa	.	.	16aa
=28	=28	=28	=28	=28	=28	=28
4G	4d	4dd	4bb-	4G	16gg	4bb-
.	.	.	.	.	16dd	.
.	.	.	.	.	16gg	.
.	.	.	.	.	16bb-	.
8r	8r	8r	8r	8r	16gg	8r
.	.	.	.	.	16bb-	.
=29	=29	=29	=29	=29	=29	=29
4.r	4.r	4.r	4.r	8E	4ee	16gg#
.	.	.	.	.	.	16ee
.	.	.	.	8D	.	16gg#
.	.	.	.	.	.	16bb
.	.	.	.	8E	8r	16gg#
.	.	.	.	.	.	16ee
=30	=30	=30	=30	=30	=30	=30
4.r	4.r	4.r	4.r	8C	16ee	4aa
.	.	.	.	.	16a	.
.	.	.	.	8BB	16cc	.
.	.	.	.	.	16ee	.
.	.	.	.	8AA	16cc	8r
.	.	.	.	.	16a	.
=31	=31	=31	=31	=31	=31	=31
8G#	8e	4ee	16bb	8G#	4ee	16bb
.	.	.	16ee	.	.	16ee
8E	8e	.	16bb	8E	.	16bb
.	.	.	16ddd	.	.	16ddd
8G#	8e	8r	16ccc	8G#	8r	16ccc
.	.	.	16bb	.	.	16bb
=32	=32	=32	=32	=32	=32	=32
8AA	4e	16ee	4ccc	8AA	16ee	4ccc
.	.	16a	.	.	16a	.
8A	.	16cc	.	8A	16cc	.
.	.	16ee	.	.	16ee	.
8G	8r	16cc	8r	8G	16cc	8r
.	.	16a	.	.	16a	.
=33	=33	=33	=33	=33	=33	=33
8F	4f	4aa	16ddd	8F	4aa	16ddd
.	.	.	16aa	.	.	16aa
8d	.	.	16ddd	8d	.	16ddd
.	.	.	16ccc	.	.	16ccc
8D	8d	8ff	16bb	8D	8ff	16bb
.	.	.	16aa	.	.	16aa
=34	=34	=34	=34	=34	=34	=34
4D	4B	4g#	4eee	4D	4g#	4eee
8C	8A	[8a	8ee	8C	[8a	8ee
=35	=35	=35	=35	=35	=35	=35
8D	8.f	8a]	16dd	8D	8a]	16dd
.	.	.	16cc	.	.	16cc
8E	.	8.a	4b	8E	8.a	4b
.	16B	.	.	.	.	.
8EE	8e	.	.	8EE	.	.
.	.	16g#	.	.	16g#	.
=36	=36	=36	=36	=36	=36	=36
4.AA	4.e	4.a	4.a	4.AA	4.a	4.a
=37	=37	=37	=37	=37	=37	=37
4.r	4.r	4.r	4.r	8E	4.r	16gg#
.	.	.	.	.	.	16ee
.	.	.	.	8D	.	16gg#
.	.	.	.	.	.	16bb
.	.	.	.	8E	.	16gg#
.	.	.	.	.	.	16ee
=38	=38	=38	=38	=38	=38	=38
4.r	4.r	4.r	4.r	8C	16ee	4aa
.	.	.	.	.	16a	.
.	.	.	.	8BB	16cc	.
.	.	.	.	.	16ee	.
.	.	.	.	8AA	16cc	8r
.	.	.	.	.	16a	.
=39	=39	=39	=39	=39	=39	=39
8G#	8e	4ee	16bb	8G#	4ee	16bb
.	.	.	16ee	.	.	16ee
8E	8e	.	16bb	8E	.	16bb
.	.	.	16ddd	.	.	16ddd
8G#	8e	8r	16ccc	8G#	8r	16ccc
.	.	.	16bb	.	.	16bb
=40	=40	=40	=40	=40	=40	=40
8AA	4e	16ee	4ccc	8AA	16ee	4ccc
.	.	16a	.	.	16a	.
8A	.	16cc	.	8A	16cc	.
.	.	16ee	.	.	16ee	.
8G	8r	16cc	8r	8G	16cc	8r
.	.	16a	.	.	16a	.
=41	=41	=41	=41	=41	=41	=41
8F	4f	4aa	16ddd	8F	4aa	16ddd
.	.	.	16aa	.	.	16aa
8d	.	.	16ddd	8d	.	16ddd
.	.	.	16ccc	.	.	16ccc
8D	8d	8ff	16bb	8D	8ff	16bb
.	.	.	16aa	.	.	16aa
=42	=42	=42	=42	=42	=42	=42
4D	4B	4g#	4eee	4D	4g#	4eee
8C	8A	[8a	8ee	8C	[8a	8ee
=43	=43	=43	=43	=43	=43	=43
8D	8.f	8a]	16dd	8D	8a]	16dd
.	.	.	16cc	.	.	16cc
8E	.	8.a	4b	8E	8.a	4b
.	16B	.	.	.	.	.
8EE	8e	.	.	8EE	.	.
.	.	16g#	.	.	16g#	.
=44	=44	=44	=44	=44	=44	=44
4.AA	4.e	4.a	4.a	4.AA	4.a	4.a
=45	=45	=45	=45	=45	=45	=45
4.r	4.r	4.r	4.r	8F	8a	8ff
.	.	.	.	4C	4g	16ee
.	.	.	.	.	.	16dd
.	.	.	.	.	.	16cc
.	.	.	.	.	.	16b-
=46	=46	=46	=46	=46	=46	=46
4.r	4.r	4.r	4.r	4D	4.f	8a
.	.	.	.	.	.	8f
.	.	.	.	8AA	.	8cc
=47	=47	=47	=47	=47	=47	=47
4.r	4.r	4.r	4.r	8BB-	8dd	8ff
.	.	.	.	8GG	4ee	8.gg
.	.	.	.	8C	.	.
.	.	.	.	.	.	32ff
.	.	.	.	.	.	32gg
=48	=48	=48	=48	=48	=48	=48
4.r	4.r	4.r	4.r	4.FF	4.ff	8aa
.	.	.	.	.	.	8cc
.	.	.	.	.	.	8f
=49	=49	=49	=49	=49	=49	=49
8F	4cc	4ff	4aa	8F	4ff	4aa
8A	.	.	.	8A	.	.
8F	8r	8r	8r	8F	8r	8r
=50	=50	=50	=50	=50	=50	=50
8c	4cc	4ee	4gg	8c	4ee	4gg
8E	.	.	.	8E	.	.
8C	8r	8r	8r	8C	8r	8r
=51	=51	=51	=51	=51	=51	=51
8F	8c	8a	16aa	8F	8a	16aa
.	.	.	16gg	.	.	16gg
8D	4d	4b	4ff	8D	4b	4ff
8G	.	.	.	8G	.	.
=52	=52	=52	=52	=52	=52	=52
4.C	4.e	4.cc	4.ee	4.C	4.cc	4.ee
=53	=53	=53	=53	=53	=53	=53
4.r	4.r	4.r	4.r	4c	4.r	8ccc
.	.	.	.	.	.	16bb-
.	.	.	.	.	.	16aa
.	.	.	.	8r	.	16gg
.	.	.	.	.	.	16ff
=54	=54	=54	=54	=54	=54	=54
4.r	4.r	4.r	4.r	4C	8ccc	8ee
.	.	.	.	.	16bb-	4ff
.	.	.	.	.	16aa	.
.	.	.	.	8r	16gg	.
.	.	.	.	.	16ff	.
=55	=55	=55	=55	=55	=55	=55
4.r	4.r	4.r	4.r	4c	8ee	8gg
.	.	.	.	.	4ff	4aa
.	.	.	.	8r	.	.
=56	=56	=56	=56	=56	=56	=56
4.r	4.r	4.r	4.r	8C	4.ee	8gg
.	.	.	.	8c	.	4cc
.	.	.	.	8B-	.	.
=57	=57	=57	=57	=57	=57	=57
8A	4cc	4ff	4ccc	8A	4ff	4ccc
8B-	.	.	.	8B-	.	.
8c	8r	8r	8r	8c	8r	8r
=58	=58	=58	=58	=58	=58	=58
4E	4cc	4gg	4bb-	4E	4gg	4bb-
8r	8r	8r	8r	8r	8r	8r
=59	=59	=59	=59	=59	=59	=59
8F	8cc	8ff	16aa	8F	8ff	16aa
.	.	.	16gg	.	.	16gg
4C	4cc	4ee	4gg	4C	4ee	4gg
=60	=60	=60	=60	=60	=60	=60
4.F	4.a	4.ff	4.ff	4.F	4.ff	4.ff
=61	=61	=61	=61	=61	=61	=61
8A	4cc	4ff	4ccc	8A	4ff	4ccc
8B-	.	.	.	8B-	.	.
8c	8r	8r	8r	8c	8r	8r
=62	=62	=62	=62	=62	=62	=62
4E	4cc	4gg	4bb-	4E	4gg	4bb-
8r	8r	8r	8r	8r	8r	8r
=63	=63	=63	=63	=63	=63	=63
8F	8c	8ff	16aa	8F	8ff	16aa
.	.	.	16gg	.	.	16gg
4C	4c	4ee	4gg	4C	4ee	4gg
=64	=64	=64	=64	=64	=64	=64
4.FF	4.A	4.ff	4.ff	4.FF	4.ff	4.ff
==	==	==	==	==	==	==
*-	*-	*-	*-	*-	*-	*-
!!!RWG: This file only contains pitch and duration data.
!!!RWG: Transposing instruments are not transposed.
!!!RWG: Durations of rests and tied notes may be interpreted.
!!!RWG: Key is interpreted using the Humdrum key tool.
!!!SCA: 
!!!YOR: Chrysander Edition
!!!AGN: concerto grosso
!!!AFT: stage1
!!!ENC: F. Bennion
!!!END: 1997/04/15
!!!AST: baroque
!!!YEC: Copyright 1994, Center for Computer Assisted Research in the Humanities
!!!YEM: Rights to all derivative electronic formats reserved.
!!!YEM: Refer to licensing agreement for further details.
!!!YEN: United States of America
!!!EED: W.B. Hewlett
!!!KEY: 244118255
!!!EMD: Converted from MuseData to Humdrum Aug 9, 1999, by Bret Aarden using muse2kern.
!!!VTS: 1750491343
